data/images/route8.svg

<svg xmlns="http://www.w3.org/2000/svg" width="1000" height="6000"><path stroke="#e20612" d="M500 0v500m0 0v500" stroke-width="100"/><path stroke="#e20612" d="M500 500a250 250 0 0 1-250 250" stroke-width="100" fill="none"/><path stroke="#e20612" d="M500 1000v500m0 0v500" stroke-width="100"/><path stroke="#e20612" d="M500 1500a250 250 0 0 1-250 250" stroke-width="100" fill="none"/><path stroke="#e20612" d="M500 2000v500m0 0v500m0 0v500" stroke-width="100"/><path stroke="#e20612" d="M500 3000a250 250 0 0 1-250 250M250 4000c0-125 62.5-187.5 125-250s125-125 125-250m250 500c0-125-62.5-187.5-125-250s-125-125-125-250M390 3950H110" stroke-width="100" fill="none"/><path stroke="#e20612" d="M750 4000v500m0 0v500" stroke-width="100"/><path stroke="#e20612" d="M750 4500a250 250 0 0 0 250 250" stroke-width="100" fill="none"/><path stroke="#e20612" stroke-opacity=".4" d="M720 4975v525m60-525v525m-60-25v525m60-525v525" stroke-width="40" stroke-dasharray="50"/></svg>

<svg xmlns="http://www.w3.org/2000/svg" width="1000" height="6000"><path stroke="#e20612" d="M500 0v500M500 500v500" stroke-width="100"/><path stroke="#e20612" d="M500 500a250 250 0 0 1-250 250" stroke-width="100" fill="none"/><path stroke="#e20612" d="M500 1000v500M500 1500v500" stroke-width="100"/><path stroke="#e20612" d="M500 1500a250 250 0 0 1-250 250" stroke-width="100" fill="none"/><path stroke="#e20612" d="M500 2000v500M500 2500v500M500 3000v500" stroke-width="100"/><path stroke="#e20612" d="M500 3000a250 250 0 0 1-250 250" stroke-width="100" fill="none"/><g stroke="#e20612" stroke-width="100" fill="none"><path d="M250 4000c0-125 62.5-187.5 125-250s125-125 125-250M750 4000c0-125-62.5-187.5-125-250s-125-125-125-250"/></g><path d="M390 3950H110" fill="none" stroke-width="100" stroke="#e20612"/><path stroke="#e20612" d="M750 4000v500M750 4500v500" stroke-width="100"/><path stroke="#e20612" d="M750 4500a250 250 0 0 0 250 250" stroke-width="100" fill="none"/><path stroke="#e20612" stroke-opacity=".4" d="M720 4975v525M780 4975v525M720 5475v525M780 5475v525" stroke-width="40" stroke-dasharray="50"/></svg>
